X: 51
T:James Louders March. BF11.51
M:4/4
Q:120
C:Browne A hand
S:MS11,c1800.,Browne Coll.,Lakes
R:March
O:England
A:Lakes
Z:vmp.Chris Partington
K:G
GB|d3e ((3dec) ((3BcA)|G2G>G G>BA>c|B>GB>d e>dc>B|d>ed>BA2G>B|!
d3e ((3dec) ((3BcA)|G2G>G G>BA>c| ((3Bcd) ((3edc) B2A2|G2G>GG2:|!
|:d>B|A3B d>cB>A|B3d e>dc>B|B>dc>e e>dc>B|d3BA2D>D|!
G4(AG)(cB)|B4c>Be>d| ((3def) ((3gfe) ((3dec) ((3BcA)|G2G>GG2:|]
